!!!!SEGMENT: pl-sa--308-a-vii-68--001_riccieri-giovanni-antonio--concerti-tres-de-deo-o-amor-mi.krn
!!!cenid: 17xx:609
!!!COM: Riccieri, Giovanni Antonio
!!!COM-rismID: pe30007685
!!!CDT: 1679-1746
!!!CNT: Italian
!!!GTL: Concerti Tres de Deo
!!!OTL: O amor mi
!!!PDT:
!!!AGN:
!!!SMS-siglum: PL-SA
!!!SMS-shelfmark: 308/A VII 68
!!!SMS-shelfwork: 001 G
!!!SMS-variant:
!!!SMS-altvar:
!!!NIFC-rismSourceID: 1001041296
!!!NIFC-islandoraID:
!!!URL-pdf-islandora:
!!!URL-scan: https://bc.bdsandomierz.pl/dlibra/publication/1613/edition/1581/content @EN{Scan on Cyfrowa Biblioteka Diecezjalna w Sandomierzu} @PL{Skany w portalu Cyfrowa Biblioteka Diecezjalna w Sandomierzu}
!!!ONB-nifc:
!!!AIN: 1 empty 1 organ 2 violn
!!!key:
**kern	**fba	**kern	**dynam	**kern	**dynam	**kern	**text
*part4	*part4	*part3	*part3	*part2	*part2	*part1	*part1
*staff4	*	*staff3	*	*staff2	*	*staff1	*staff1
*Iorgan	*	*Ivioln	*	*Ivioln	*	*Iempty	*
*I"Organo	*	*I"Violino 2do.	*	*I"Violino 1mõ.	*	*I"Baſso ſolo.	*
*I'Org	*	*I'Vl 2	*	*I'Vl 1	*	*I'B	*
*group3	*	*group2	*	*group2	*	*group1	*
*clefF4	*	*clefG2	*	*clefG2	*	*clefF4	*
*k[f#]	*	*k[f#]	*	*k[f#]	*	*k[f#]	*
*G:	*	*G:	*	*G:	*	*G:	*
*M2/2	*	*M2/2	*	*M2/2	*	*M2/2	*
*met(c|)	*	*met(c|)	*	*met(c|)	*	*met(c|)	*
=1	=1	=1	=1	=1	=1	=1	=1
*2\right	*	*	*	*	*	*	*
!LO:TX:a:t=P:problem=strony 8 i 9 zamienione miejscami	!	!	!	!	!	!	!
!LO:TX:b:t=O amor.	!	!	!	!	!	!	!
!LO:TX:a:t=P:problem= znaki przy kluczu f- f-	!	!LO:TX:b:t=O amor.	!	!LO:TX:b:t=O amor.	!	!LO:TX:a:t=P:problem= znaki przy kluczu f- f-	!
!LO:TX:a:t=P:problem= metrum C z kropką w środku	!	!LO:TX:a:t=P:problem= znaki przy kluczu f- f-	!	!LO:TX:a:t=P:problem= znaki przy kluczu f- f-	!	!LO:TX:a:t=P:problem= metrum C z kropką w środku	!
2E\	.	1r	.	8r	.	00r	.
.	.	.	.	8bb\L	.	.	.
.	.	.	.	8gg\	.	.	.
.	.	.	.	8ee\J	.	.	.
8r	.	.	.	8ccc\L	.	.	.
8A\L	.	.	.	8ccc\	.	.	.
8c\	.	.	.	8.ccc\	.	.	.
8A\J	.	.	.	.	.	.	.
.	.	.	.	16ccc\Jk	.	.	.
=2	=2	=2	=2	=2	=2	=2	=2
2E\	.	8r	.	4.bb\	.	.	.
.	.	8b/L	.	.	.	.	.
.	.	8g/	.	.	.	.	.
.	.	8e/J	.	8gg\	.	.	.
8r	.	8cc\L	.	8aa\L	.	.	.
8A\L	.	8cc\	.	8aa\	.	.	.
8c\	.	8.ccT\	.	8.aa\	.	.	.
8A\J	.	.	.	.	.	.	.
.	.	16b\Jk	.	16aa\Jk	.	.	.
=3	=3	=3	=3	=3	=3	=3	=3
8E\L	.	8.b/L	.	8.gg\L	.	.	.
8E\	.	.	.	.	.	.	.
.	.	16a/Jk	.	16ff#\Jk	.	.	.
8G\	.	2g/	.	8ee\L	.	.	.
8E\J	.	.	.	16ff#\L	.	.	.
.	.	.	.	16gg\JJ	.	.	.
4A\	7	.	.	8cc\L	.	.	.
.	.	.	.	8cc\	.	.	.
4D\	7	8f#/L	.	8cc\	.	.	.
.	.	[8a/J	.	8cc\J	.	.	.
=4	=4	=4	=4	=4	=4	=4	=4
4G\	.	8a/L]	.	8cc\L	.	.	.
.	.	8d/J	.	8b\J	.	.	.
8r	.	4.g/	.	16r	.	.	.
.	.	.	.	16ee\LL	.	.	.
!LO:TX:t=P:global:problem=8\ chorągiewka w lewo przy pojednyczych nutach	!	!	!	!	!	!	!
8c\	.	.	.	16dd\	.	.	.
.	.	.	.	16cc\JJ	.	.	.
!LO:TX:t=P:problem=mixed beam	!	!	!	!	!	!	!
8B\L	.	.	.	16dd\LL	.	.	.
.	.	.	.	16cc\	.	.	.
8c\	.	16g/LL	.	16b\	.	.	.
.	.	16a/JJ	.	16cc\JJ	.	.	.
8d\	.	8.f#/L	.	8.a/L	.	.	.
8D/J	.	.	.	.	.	.	.
.	.	16g/Jk	.	16g/Jk	.	.	.
=5	=5	=5	=5	=5	=5	=5	=5
4G\	.	4g/	.	4g/	.	00r	.
8r	.	8r	.	8bb\L	.	.	.
8A\	4# 2	8f#/	.	8dd#X\J	.	.	.
4G\	6	4g/	.	8ee\L	.	.	.
.	.	.	.	8ccc\J	.	.	.
8r	.	8r	.	8bb\L	.	.	.
!LO:TX:a:t=P:problem= zamazana nuta	!	!	!	!	!	!	!
8A\	4# 2	8f#/	.	8dd#X\J	.	.	.
!LO:LB:g=original	!	!	!	!LO:LB:g=original	!	!	!
=6	=6	=6	=6	=6	=6	=6	=6
8G\L	6	8g/L	.	4.ee\	.	.	.
8A\	.	8cc/J	.	.	.	.	.
8G\	.	8b/L	.	.	.	.	.
8F#\J	6|	8d#X/J	.	8ff#\	.	.	.
4E\	.	4e/	.	8gg\L	.	.	.
.	.	.	.	16ff#\L	.	.	.
.	.	.	.	16ee\JJ	.	.	.
4D\	4# 2	8r	.	8.gg#X\L	.	.	.
.	.	8b\	.	.	.	.	.
.	.	.	.	16gg#\Jk	.	.	.
=7	=7	=7	=7	=7	=7	=7	=7
!	!	!LO:TX:t=P:problem=mixed beam	!	!	!	!	!
8C/L	6	8cc\L	.	4aa\	.	.	.
8D/	n	8ffn\	.	.	.	.	.
8C/	6	8ee\	.	8aa\L	.	.	.
8BB/J	6|	8g#X/J	.	8bb\J	.	.	.
4.AA/	.	8.a/L	.	8.ccc\L	.	.	.
.	.	16b/Jk	.	16bb\Jk	.	.	.
.	.	16cc\LL	.	16aa\LL	.	.	.
.	.	16b\	.	16gg\	.	.	.
8AA/	.	16a\	.	16ff#\	.	.	.
.	.	16g#\JJ	.	16ee\JJ	.	.	.
=8	=8	=8	=8	=8	=8	=8	=8
4BB/	#	4f#X/	.	8dd#X\L	.	.	.
.	.	.	.	8b\J	.	.	.
8r	.	8r	.	16r	.	.	.
.	.	.	.	16b\LL	.	.	.
8E\	#	8g#X/	.	16b\	.	.	.
.	.	.	.	16b\JJ	.	.	.
!	!	!LO:LB:g=original	!	!LO:TX:a:t=P:problem= zbędna kreska taktowa	!	!	!
4A\	n	16a/LL	.	16cc\LL	.	.	.
.	.	16g#X/	.	16b\	.	.	.
.	.	16a/	.	16cc\	.	.	.
.	.	16g#X/JJ	.	16b\JJ	.	.	.
8r	.	8a/L	.	16cc\LL	.	.	.
.	.	.	.	16cc#X\	.	.	.
8A\	#	8e/J	.	16cc#\	.	.	.
.	.	.	.	16cc#\JJ	.	.	.
=9	=9	=9	=9	=9	=9	=9	=9
4D\	.	16f#X/LL	.	16dd\LL	.	0r	.
.	.	16e/	.	16cc#X\	.	.	.
.	.	16f#/	.	16dd\	.	.	.
.	.	16e/JJ	.	16cc#X\JJ	.	.	.
8r	.	8f#X/L	.	16dd\LL	.	.	.
.	.	.	.	16dd#X\	.	.	.
8B\	#	8f#/J	.	16dd#\	.	.	.
.	.	.	.	16dd#\JJ	.	.	.
4E\	n	16g/LL	.	16ee\LL	.	.	.
.	.	16f#X/	.	16dd#X\	.	.	.
.	.	16g/	.	16ee\	.	.	.
!	!	!	!	!LO:TX:a:t=P:problem=custos ee	!	!	!
.	.	16f#/JJ	.	16dd#X\JJ	.	.	.
!	!	!	!	!LO:LB:g=original	!	!	!
4r	.	8g/L	.	16ee\LL	.	.	.
.	.	.	.	16gg\	.	.	.
.	.	8e/J	.	16ff#\	.	.	.
.	.	.	.	16ee\JJ	.	.	.
=10	=10	=10	=10	=10	=10	=10	=10
*	*	*2\right	*	*2\right	*	*	*
4D#X\	6 5	16f#/LL	.	[2aa\	.	.	.
.	.	16e/	.	.	.	.	.
.	.	16f#/	.	.	.	.	.
.	.	16e/JJ	.	.	.	.	.
4r	.	16f#/LL	.	.	.	.	.
.	.	16a/	.	.	.	.	.
.	.	16g/	.	.	.	.	.
.	.	16f#/JJ	.	.	.	.	.
!	!	!LO:TX:a:t=P:problem= łuk do pauzy	!	!	!	!	!
4D#\	6	(<2b\	.	8.aa\L]	.	.	.
.	5	.	.	16ff#\Jk	.	.	.
4r	.	.	.	16dd#X\LL	.	.	.
.	.	.	.	16b\	.	.	.
.	.	.	.	16a\	.	.	.
.	.	.	.	16f#\JJ	.	.	.
!LO:LB:g=original	!	!	!	!	!	!	!
=11	=11	=11	=11	=11	=11	=11	=11
8r	.	8r)	.	4.B/	.	1r	.
8D#X/L	5	8ff#\L	.	.	.	.	.
8C/	.	8ee\	.	.	.	.	.
*	*	*	*	*Xtuplet	*	*	*
!	!	!	!	!LO:TX:a:t=P:problem=brak oznaczenia trioli	!	!	!
8BB/J	.	8dd#X\J	.	24b\LL	.	.	.
.	.	.	.	24ee\	.	.	.
.	.	.	.	24ff#\JJ	.	.	.
!LO:TX:t=P:problem=mixed beam	!	!	!	!	!	!	!
8E\L	.	8ee\L	.	16gg\LL	.	.	.
.	.	.	.	16ff#\	.	.	.
8A\	.	16cc\L	.	16ee\	.	.	.
.	.	16a\JJ	.	16ff#\JJ	.	.	.
8B\	.	8.f#/L	.	8.dd#X\L	.	.	.
8BB/J	.	.	.	.	.	.	.
.	.	16e/Jk	.	16ee\Jk	.	.	.
=12	=12	=12	=12	=12	=12	=12	=12
2E\	.	4e/	.	4ee\	.	8r	.
!	!	!	!	!	!	!LO:TX:a:t=P:global:problem=8\ pojedyncze chorągiewki w lewo na tej stronie	!
.	.	.	.	.	.	8B\	O
.	.	4r	.	4r	.	8G\	A-
.	.	.	.	.	.	8E\	-mor
8r	.	2r	.	2r	.	8c\	mi
8A\L	.	.	.	.	.	8c\	O
8c\	.	.	.	.	.	8.c\	dul-
8A\J	.	.	.	.	.	.	.
!	!	!	!	!	!	!LO:TX:a:t=P:global:problem=16\ pojedyncze chorągiewki w lewo na tej stronie	!
.	.	.	.	.	.	16B\	-cor
=13	=13	=13	=13	=13	=13	=13	=13
!	!	!	!	!	!LO:DY:b:t=piano	!	!
2E\	.	1r	.	8r	p	4.B\	mi
.	.	.	.	8b/L	.	.	.
.	.	.	.	8g/	.	.	.
.	.	.	.	8e/J	.	8E\	a-
8r	.	.	.	8cc\L	.	8A\	-mo-
8A\L	.	.	.	8cc\	.	8A\	-re
8c\	.	.	.	8.cc\	.	8.A\	tu-
8A\J	.	.	.	.	.	.	.
.	.	.	.	16cc\Jk	.	16B\	-i
=14	=14	=14	=14	=14	=14	=14	=14
4E\	.	4r	.	4b\	.	8.G\	lan-
.	.	.	.	.	.	16F#\	-gue-
!	!	!	!	!	!LO:DY:b:t=For.	!	!
8r	.	16r	.	16r	f	4E\	-o
.	.	16g#X/LL	.	16b\LL	.	.	.
8E\	#	16g#/	.	16b\	.	.	.
.	.	16g#/JJ	.	16b\JJ	.	.	.
4A\	n	16a/LL	.	16cc\LL	.	2r	.
.	.	16g#X/	.	16b\	.	.	.
.	.	16a/	.	16cc\	.	.	.
!	!	!	!	!LO:TX:a:t=P:problem=custos cc	!	!	!
.	.	16g#X/JJ	.	16b\JJ	.	.	.
!	!	!	!	!LO:LB:g=original	!	!	!
8r	.	8a/L	.	16cc\LL	.	.	.
.	.	.	.	16cc#X\	.	.	.
8A\	#	8e/J	.	16cc#\	.	.	.
.	.	.	.	16cc#\JJ	.	.	.
!	!	!LO:LB:g=original	!	!	!	!	!
=15	=15	=15	=15	=15	=15	=15	=15
4D\	.	16f#/LL	.	16dd\LL	.	0r	.
.	.	16e/	.	16cc#X\	.	.	.
.	.	16f#/	.	16dd\	.	.	.
.	.	16e/JJ	.	16cc#X\JJ	.	.	.
!LO:TX:a:t=P:problem= zamazana nuta	!	!	!	!	!	!	!
8F#\L	.	8f#/L	.	16dd\LL	.	.	.
.	.	.	.	16dd#X\	.	.	.
!LO:TX:a:t=P:problem= nieczytelna nuta	!	!	!	!	!	!	!
8A\Jyy	#	8f#/J	.	16dd#\	.	.	.
.	.	.	.	16dd#\JJ	.	.	.
!LO:LB:g=original	!	!	!	!	!	!	!
4E\	.	16g/LL	.	16ee\LL	.	.	.
.	.	16f#/	.	16dd#X\	.	.	.
.	.	16g/	.	16ee\	.	.	.
.	.	16f#/JJ	.	16dd#X\JJ	.	.	.
4r	.	8g/L	.	16ee\LL	.	.	.
.	.	.	.	16gg\	.	.	.
.	.	8e/J	.	16ff#\	.	.	.
.	.	.	.	16ee\JJ	.	.	.
=16	=16	=16	=16	=16	=16	=16	=16
4D#X\	6	16f#/LL	.	[2aa\	.	.	.
.	5	16e/	.	.	.	.	.
.	.	16f#/	.	.	.	.	.
.	.	16e/JJ	.	.	.	.	.
4r	.	16f#/LL	.	.	.	.	.
.	.	16a/	.	.	.	.	.
.	.	16g/	.	.	.	.	.
.	.	16f#/JJ	.	.	.	.	.
!LO:TX:t=P:problem=mixed beam	!	!	!	!	!	!	!
8D#\L	.	16b/LL	.	16aa\LL]	.	.	.
.	.	16a/	.	16ff#\	.	.	.
8E\	.	16g/	.	16gg\	.	.	.
.	.	16a/JJ	.	16ee\JJ	.	.	.
8B\	4	8.f#/L	.	8.dd#X\L	.	.	.
.	#	.	.	.	.	.	.
8BB/J	.	.	.	.	.	.	.
.	.	16e/Jk	.	16ee\Jk	.	.	.
!	!	!	!	!	!	!LO:LB:g=original	!
=17	=17	=17	=17	=17	=17	=17	=17
2E\	.	4e/	.	4ee\	.	8r	.
.	.	.	.	.	.	8B\	O
.	.	4r	.	4r	.	8G\	A-
.	.	.	.	.	.	8E\	-mor
8r	.	2r	.	2r	.	8c\	mi
8AA/L	.	.	.	.	.	8c\	O
8C/	.	.	.	.	.	8.c\	dul-
8AA/J	.	.	.	.	.	.	.
.	.	.	.	.	.	16B\	-cor
=18	=18	=18	=18	=18	=18	=18	=18
2E\	.	8r	.	2r	.	4.B\	mi
.	.	8b/L	.	.	.	.	.
.	.	8g/	.	.	.	.	.
.	.	8e/J	.	.	.	8E\	a-
8r	.	8cc\L	.	4r	.	8A\	-mo-
8A\L	.	8cc\	.	.	.	8A\	-re
8c\	.	8.cc\	.	8r	.	8.A\	Tu-
!	!	!	!	!	!LO:DY:b:t=piano.	!	!
8A\J	.	.	.	16ee\LL	p	.	.
.	.	16b\Jk	.	16ff#\JJ	.	16B\	-i
=19	=19	=19	=19	=19	=19	=19	=19
8E\L	.	4b\	.	8gg\L	.	8.G\	lan-
8E\	.	.	.	8aa\	.	.	.
.	.	.	.	.	.	16F#\	-gue-
8G\	.	8r	.	8bb\	.	8E\	-o
8E\J	.	8e/	.	8gg\J	.	8G\	a-
!	!	!	!	!	!	!LO:LB:g=original	!
4A\	7	4e/	.	4gg\	.	8c\	-mo-
.	.	.	.	.	.	16A\LL	-re
.	.	.	.	.	.	16B\JJ	.
4D\	.	4d/	.	4ff#\	.	8.c\	lan-
.	.	.	.	.	.	16B\	-gue-
!	!	!	!	!LO:LB:g=original	!	!	!
=20	=20	=20	=20	=20	=20	=20	=20
8G\L	.	4d/	.	4gg\	.	4B\	-o
8G\	.	.	.	.	.	.	.
8B\	.	8r	.	4r	.	8r	.
!LO:TX:a:t=P:problem= zamazana nuta	!	!	!	!	!	!	!
8G\J	.	8dd\	.	.	.	8B\	a-
!LO:LB:g=original	!	!	!	!	!	!	!
4C/	6 5	16cc\LL	.	2r	.	8A\	-mo-
.	.	16dd\	.	.	.	.	.
.	.	16b\	.	.	.	16B\LL	-re
.	.	16cc\JJ	.	.	.	16G\JJ	.
4D/	4	8.a/L	.	.	.	8.D\	si-
.	#	16g/Jk	.	.	.	16D\	-ti-
=21	=21	=21	=21	=21	=21	=21	=21
4GG/	.	4b/	.	4r	.	4G\	-o
4r	.	8r	.	8r	.	8r	.
.	.	8ee\	.	8g#X/	.	8B\	O
!	!	!LO:TX:t=P:problem=mixed beam	!	!	!	!	!
2r	.	8a/L	.	16a/LL	.	16c\LL	a-
.	.	.	.	16g#X/	.	16B\JJ	.
.	.	8ee\	.	16a/	.	16c\LL	-mor-
.	.	.	.	16g#X/JJ	.	16B\JJ	.
.	.	8a/	.	8a/L	.	8c\	-mi
.	.	8ee\J	.	8g#X/J	.	8B\	O
!	!	!LO:LB:g=original	!	!	!	!	!
=22	=22	=22	=22	=22	=22	=22	=22
1r	.	4a/	.	4a/	.	8.c\	dul-
.	.	.	.	.	.	16B\	-cor
.	.	8r	.	8r	.	8A\	mi
!	!	!	!	!	!	!LO:LB:g=original	!
.	.	8dd\	.	8f#/	.	8A\	O
!	!	!LO:TX:t=P:problem=mixed beam	!	!	!	!	!
.	.	8g/L	.	16gn/LL	.	16B\LL	a-
.	.	.	.	16f#X/	.	16A\JJ	.
.	.	8dd\	.	16g/	.	16B\LL	-mor
.	.	.	.	16f#/JJ	.	16A\JJ	.
.	.	8g/	.	8g/L	.	8B\	mi
.	.	8dd\J	.	8f#X/J	.	8A\	O
=23	=23	=23	=23	=23	=23	=23	=23
4r	.	4g/	.	4g/	.	8.B\	dul-
.	.	.	.	.	.	16A\	-cor
8r	.	4r	.	8r	.	8G\	mi
8E\	.	.	.	8gg\	.	8B\	A
2A\	.	4r	.	8ccc\L	.	8A\L	mo-
.	.	.	.	8bb\	.	8G\J	.
.	.	4cc\	.	8aa\	.	8F#\L	-re
.	.	.	.	8gg\J	.	8E\J	.
=24	=24	=24	=24	=24	=24	=24	=24
4B\	#	4d#X/	.	4ff#\	.	16B\LL	si-
.	.	.	.	.	.	16A\JJ	.
.	.	.	.	.	.	16B\LL	-ti-
.	.	.	.	.	.	16c\JJ	.
8r	.	4r	.	4r	.	8B\	-o
8G\	.	.	.	.	.	8B\	A-
2A\	.	4r	.	4r	.	8A\L	-mo-
.	.	.	.	.	.	8G\J	.
.	.	4a/	.	4ccc\	.	8F#\L	-re
.	.	.	.	.	.	8E\J	.
=25	=25	=25	=25	=25	=25	=25	=25
4B\	#	4f#/	.	4dd#X\	.	16B\LL	lan-
.	.	.	.	.	.	16A\JJ	.
.	.	.	.	.	.	16B\LL	-gue-
.	.	.	.	.	.	16c\JJ	.
!	!	!	!	!	!	!LO:LB:g=original	!
8r	.	8r	.	2bb\	.	4B\	-o
8G\	.	8b\	.	.	.	.	.
8A\L	9	2cc\	.	.	.	4.c\	Ve-
8G\	.	.	.	.	.	.	.
8A\	9	.	.	[<4aa\	.	.	.
8D\J	.	.	.	.	.	16B\LL	.
.	.	.	.	.	.	16A\JJ	.
!	!	!	!	!LO:LB:g=original	!	!	!
=26	=26	=26	=26	=26	=26	=26	=26
!	!	!	!	!LO:TX:a:t=P:problem= ligatura nie powtórzona w drugim systemie	!	!	!
8G\L	9	2b/	.	4aa\]	.	4.B\	.
8F#\	.	.	.	.	.	.	.
8G\	.	.	.	2gg\	.	.	.
!LO:TX:a:t=P:problem= zamazana nuta	!	!	!	!	!	!	!
8C\J	.	.	.	.	.	16A\LL	.
.	.	.	.	.	.	16G\JJ	.
!LO:LB:g=original	!	!	!	!	!	!	!
8F#\L	9	2a/	.	.	.	4.A\	-ni
8E\	.	.	.	.	.	.	.
8F#\	.	.	.	4ff#\	.	.	.
8BB\J	.	.	.	.	.	16G\	ach
.	.	.	.	.	.	16F#\	.
=27	=27	=27	=27	=27	=27	=27	=27
4E\	9	2g/	.	4b\	.	8G\	Ve-
.	.	.	.	.	.	4E\	-ni
8r	.	.	.	2ee\	.	.	.
8c\	6	.	.	.	.	8A\	Mun-
!LO:TX:t=P:problem=mixed beam	!	!	!	!	!	!	!
8B\L	4	2f#/	.	.	.	4E\	-eve
8A\	.	.	.	.	.	.	.
8B\	3	.	.	4dd#X\	.	8.BB/	cre-
.	#	.	.	.	.	.	.
8BB/J	.	.	.	.	.	.	.
.	.	.	.	.	.	16BB/	-a
=28	=28	=28	=28	=28	=28	=28	=28
4E\	.	4e/	.	4ee\	.	4E\	me
4r	.	8r	.	8r	.	8r	.
.	.	8ee\	.	8g#X/	.	8B\	O
!	!	!LO:TX:t=P:problem=mixed beam	!	!	!	!	!
2r	.	8a/L	.	16a/LL	.	16c\LL	a-
.	.	.	.	16g#X/	.	16B\JJ	.
!	!	!	!	!	!	!LO:LB:g=original	!
.	.	8ee\	.	16a/	.	16c\LL	-mor
.	.	.	.	16g#X/JJ	.	16B\JJ	.
.	.	8a/	.	8a/L	.	8c\	mi
.	.	8ee\J	.	8g#X/J	.	8B\	O
=29	=29	=29	=29	=29	=29	=29	=29
1r	.	4a/	.	4a/	.	8.c\	dul-
.	.	.	.	.	.	16B\	-cor
.	.	8r	.	8r	.	8A\	mi
.	.	8dd\	.	8f#X/	.	8A\	O
!	!	!LO:TX:t=P:problem=mixed beam	!	!	!	!	!
.	.	8g/L	.	16gn/LL	.	16B\L	a-
.	.	.	.	16f#X/	.	16A\J	.
.	.	8dd\	.	16g/	.	16B\L	-mor
.	.	.	.	16f#/JJ	.	16A\J	.
.	.	8g/	.	8g/L	.	8B\	mi
.	.	8dd\J	.	8f#X/J	.	8A\	O
=30	=30	=30	=30	=30	=30	=30	=30
4r	.	4g/	.	4g/	.	8.B\	dul-
.	.	.	.	.	.	16A\	-cor
8r	.	4r	.	4r	.	8G\	mi
8E\	.	.	.	.	.	8B\	a-
2A\	.	4r	.	4r	.	8A\L	-mo-
.	.	.	.	.	.	8G\J	.
!	!	!	!	!	!LO:DY:b:t=piano.	!	!
.	.	4a/	.	4ccc\	p	8F#\L	-re
.	.	.	.	.	.	8E\J	.
=31	=31	=31	=31	=31	=31	=31	=31
4B\	#	4f#/	.	4dd#X\	.	16B\LL	Lan-
.	.	.	.	.	.	16A\JJ	.
.	.	.	.	.	.	16B\LL	-gue-
.	.	.	.	.	.	16c\JJ	.
!	!	!	!	!	!	!LO:PB:g=original	!
!	!	!	!	!	!	!LO:TX:a:t=P:global:problem=8\ pojedyncze chorągiewki w prawo na tej stronie	!
8r	.	4r	.	8r	.	8B\	-o
8G\	.	.	.	8gg\	.	8B\	A-
!LO:TX:a:t=P:problem= zamazana nuta	!	!	!	!LO:LB:g=original	!	!	!
2A\	.	4r	.	8ccc\L	.	8A\L	-mo-
.	.	.	.	8bb\	.	8G\J	.
.	.	4cc\	.	8aa\	.	8F#\L	-re
.	.	.	.	8gg\J	.	8E\J	.
!LO:PB:g=original	!	!LO:LB:g=original	!	!	!	!	!
=32	=32	=32	=32	=32	=32	=32	=32
4B\	#	4d#X/	.	4ff#\	.	16B\LL	Si-
.	.	.	.	.	.	16A\JJ	.
.	.	.	.	.	.	16B\LL	-ti-
.	.	.	.	.	.	16c\JJ	.
8r	.	4r	.	2b/	.	8B\	-o
8G\	.	.	.	.	.	8r	.
!	!	!	!LO:DY:b:t=piano	!	!	!	!
8A\L	.	2cc\	p	.	.	4.c\	Ve-
8G\	.	.	.	.	.	.	.
8A\	.	.	.	[4a/	.	.	.
8D\J	.	.	.	.	.	16B\LL	.
.	.	.	.	.	.	16A\JJ	.
=33	=33	=33	=33	=33	=33	=33	=33
8G\L	.	2b/	.	4a/]	.	4.B\	.
8F#\	.	.	.	.	.	.	.
8G\	.	.	.	2g/	.	.	.
8C\J	.	.	.	.	.	16A\LL	.
.	.	.	.	.	.	16G\JJ	.
8F#\L	.	2a/	.	.	.	4.A\	.
8E\	.	.	.	.	.	.	.
8F#\	.	.	.	[4f#/	.	.	.
!	!	!	!	!	!	!LO:TX:a:t=P:global:problem=16\ pojedyncze chorągiewki w prawo na tej stronie	!
8BB\J	.	.	.	.	.	16G\	-ni
.	.	.	.	.	.	16F#\	ach
=34	=34	=34	=34	=34	=34	=34	=34
4E\	.	2g/	.	8f#/L]	.	8G\	Ve-
.	.	.	.	8b/J	.	4E\	-ni
8r	.	.	.	2ee\	.	.	.
8c\	6	.	.	.	.	8A\	nunc
!LO:TX:t=P:problem=mixed beam	!	!	!	!	!	!	!
8B\L	4	2f#/	.	.	.	4E\	re-
8A\	.	.	.	.	.	.	.
8B\	3	.	.	8.dd#X\L	.	8.BB/	-cre-
.	#	.	.	.	.	.	.
8BB\J	.	.	.	.	.	.	.
.	.	.	.	16ee\Jk	.	16BB/	-a
=35	=35	=35	=35	=35	=35	=35	=35
4E\	.	4e/	.	4ee\	.	4E\	me
4AA/	6 5	4r	.	4r	.	4AA/	nunc
2BB/	4	2r	.	2r	.	4.BB/	re-
.	3	.	.	.	.	8BB/	-cre-
.	#	.	.	.	.	.	.
=36	=36	=36	=36	=36	=36	=36	=36
2E\	.	1r	.	8r	.	4E;\	-ame
.	.	.	.	8bb\L	.	.	.
.	.	.	.	8gg\	.	4r	.
.	.	.	.	8ee\J	.	.	.
!LO:LB:g=original	!	!	!	!	!	!	!
8r	.	.	.	8ccc\L	.	2r	.
!LO:SIC:s=8A:v	!	!	!	!	!	!	!
8B\L	.	.	.	8ccc\	.	.	.
8c\	.	.	.	8.ccc\	.	.	.
8A\J	.	.	.	.	.	.	.
.	.	.	.	16ccc\Jk	.	.	.
!	!	!	!	!	!	!LO:LB:g=original	!
=37	=37	=37	=37	=37	=37	=37	=37
!	!	!	!LO:DY:b:t=For.	!	!	!	!
2E\	.	8r	f	4.bb\	.	00r	.
.	.	8b/L	.	.	.	.	.
.	.	8g/	.	.	.	.	.
.	.	8e/J	.	8gg\	.	.	.
8r	.	8cc\L	.	8aa\L	.	.	.
8A\L	.	8cc\	.	8aa\	.	.	.
8c\	.	8.ccT\	.	8.aa\	.	.	.
8A\J	.	.	.	.	.	.	.
.	.	16b\Jk	.	16gg\Jk	.	.	.
!	!	!	!	!LO:LB:g=original	!	!	!
=38	=38	=38	=38	=38	=38	=38	=38
8E\L	.	8.b/L	.	8.gg\L	.	.	.
8E\	.	.	.	.	.	.	.
.	.	16a/Jk	.	16ff#\Jk	.	.	.
8G\	.	2g/	.	8ee\L	.	.	.
8E\J	.	.	.	16ff#\L	.	.	.
.	.	.	.	16gg\JJ	.	.	.
4A\	7	.	.	8cc\L	.	.	.
.	.	.	.	8cc\	.	.	.
4D\	7	8f#/L	.	8cc\	.	.	.
.	.	[8a/J	.	8cc\J	.	.	.
=39	=39	=39	=39	=39	=39	=39	=39
4G\	.	8a/L]	.	8cc\L	.	.	.
.	.	8d/J	.	8b\J	.	.	.
8r	.	4.g/	.	16r	.	.	.
.	.	.	.	16ee\LL	.	.	.
8c\	.	.	.	16dd\	.	.	.
.	.	.	.	16cc\JJ	.	.	.
8B\L	.	.	.	16dd\LL	.	.	.
.	.	.	.	16cc\	.	.	.
8c\	.	16g/LL	.	16b\	.	.	.
.	.	16a/JJ	.	16cc\JJ	.	.	.
8d\	.	8.f#/L	.	8.a/L	.	.	.
8D\J	.	.	.	.	.	.	.
.	.	16g/Jk	.	16g/Jk	.	.	.
=40	=40	=40	=40	=40	=40	=40	=40
4G\	.	4g/	.	4g/	.	.	.
8r	.	8r	.	8bb\L	.	.	.
8A\	4# 2	8f#/	.	8dd#X\J	.	.	.
4G\	.	4g/	.	8ee\L	.	.	.
.	.	.	.	8ccc\J	.	.	.
!LO:LB:g=original	!	!	!	!	!	!	!
8r	.	8r	.	8bb\L	.	.	.
8A\	.	8f#/	.	8dd#X\J	.	.	.
=41	=41	=41	=41	=41	=41	=41	=41
8G\L	6	8g/L	.	4.ee\	.	00r	.
8A\	.	8cc/	.	.	.	.	.
8G\	.	8b/	.	.	.	.	.
8F#\J	6|	8d#X/J	.	8ff#\	.	.	.
!	!	!LO:LB:g=original	!	!	!	!	!
4E\	.	4e/	.	8gg\L	.	.	.
.	.	.	.	16ff#\L	.	.	.
.	.	.	.	16ee\JJ	.	.	.
4D\	4# 2	8r	.	8.gg#X\L	.	.	.
.	.	8b\	.	.	.	.	.
.	.	.	.	16gg#\Jk	.	.	.
=42	=42	=42	=42	=42	=42	=42	=42
!	!	!LO:TX:t=P:problem=mixed beam	!	!	!	!	!
8C/L	.	8cc\L	.	4aa\	.	.	.
8D/	.	8ffn\	.	.	.	.	.
8C/	.	8ee\	.	8aa\L	.	.	.
8BB/J	.	8g#X/J	.	8bb\J	.	.	.
4.AA/	.	8.a/L	.	8.ccc\L	.	.	.
.	.	16b/Jk	.	16bb\Jk	.	.	.
!	!	!	!	!LO:LB:g=original	!	!	!
.	.	16cc/LL	.	16aa\LL	.	.	.
.	.	16b/	.	16gg\	.	.	.
8AA/	.	16a/	.	16ff#\	.	.	.
.	.	16gn/JJ	.	16ee\JJ	.	.	.
=43	=43	=43	=43	=43	=43	=43	=43
4BB/	#	4f#X/	.	8dd#X\L	.	.	.
.	.	.	.	8b\J	.	.	.
8r	.	8r	.	16r	.	.	.
.	.	.	.	16b\LL	.	.	.
8E\	#	8g#X/	.	16b\	.	.	.
.	.	.	.	16b\JJ	.	.	.
4A\	n	16a/LL	.	16cc\LL	.	.	.
.	.	16g#X/	.	16b\	.	.	.
.	.	16a/	.	16cc\	.	.	.
.	.	16g#X/JJ	.	16b\JJ	.	.	.
8r	.	8a/L	.	16cc\LL	.	.	.
.	.	.	.	16cc#X\	.	.	.
8A\	#	8e/J	.	16cc#\	.	.	.
.	.	.	.	16cc#\JJ	.	.	.
=44	=44	=44	=44	=44	=44	=44	=44
4D\	.	16f#X/LL	.	16dd\LL	.	.	.
.	.	16e/	.	16cc#X\	.	.	.
.	.	16f#/	.	16dd\	.	.	.
.	.	16e/JJ	.	16cc#X\JJ	.	.	.
8r	.	8f#/L	.	16dd\LL	.	.	.
.	.	.	.	16dd#X\	.	.	.
8B\	#	8f#/J	.	16dd#\	.	.	.
.	.	.	.	16dd#\JJ	.	.	.
4E\	.	16g/LL	.	16ee\LL	.	.	.
.	.	16f#/	.	16dd#X\	.	.	.
.	.	16g/	.	16ee\	.	.	.
.	.	16f#/JJ	.	16dd#X\JJ	.	.	.
4r	.	8g/L	.	16ee\LL	.	.	.
.	.	.	.	16gg\	.	.	.
.	.	8e/J	.	16ff#\	.	.	.
.	.	.	.	16ee\JJ	.	.	.
=45	=45	=45	=45	=45	=45	=45	=45
4D#X\	5	16f#/LL	.	[2aa\	.	0r	.
.	.	16e/	.	.	.	.	.
.	.	16f#/	.	.	.	.	.
.	.	16e/JJ	.	.	.	.	.
4r	.	16f#/LL	.	.	.	.	.
.	.	16a/	.	.	.	.	.
.	.	16g/	.	.	.	.	.
.	.	16f#/JJ	.	.	.	.	.
4D#\	6	[2b\	.	8.aa\L]	.	.	.
.	5	.	.	16ff#\Jk	.	.	.
4r	.	.	.	16dd#X\LL	.	.	.
.	.	.	.	16b\	.	.	.
.	.	.	.	16a\	.	.	.
!	!	!	!	!LO:TX:b:t=Verte Cito.	!	!	!
.	.	.	.	16f#\JJ	.	.	.
!	!	!	!	!LO:PB:g=original	!	!	!
=46	=46	=46	=46	=46	=46	=46	=46
8r	.	8b\L]	.	4.B/	.	.	.
8D#X/L	5	8ff#\	.	.	.	.	.
8C#X/	.	8ee\	.	.	.	.	.
!	!	!	!	!LO:TX:a:t=P:problem=brak oznaczenia trioli	!	!	!
8BB/J	.	8dd#X\J	.	24b\LL	.	.	.
.	.	.	.	24ee\	.	.	.
.	.	.	.	24ff#\JJ	.	.	.
!LO:TX:t=P:problem=mixed beam	!	!	!	!	!	!	!
8E\L	.	8ee\L	.	16gg\LL	.	.	.
.	.	.	.	16ff#\	.	.	.
8A\	.	16cc\L	.	16ee\	.	.	.
!	!	!LO:TX:a:t=P:problem=custos f	!	!	!	!	!
.	.	16a\JJ	.	16ff#\JJ	.	.	.
!	!	!LO:PB:g=original	!	!	!	!	!
8B\	.	8.f#/L	.	8.dd#X\L	.	.	.
8BB/J	.	.	.	.	.	.	.
.	.	16e/Jk	.	16ee\Jk	.	.	.
=47	=47	=47	=47	=47	=47	=47	=47
!LO:TX:t=P:problem=mixed beam	!	!	!	!	!	!	!
8E\L	.	16e/LL	.	16ee\LL	.	2r	.
.	.	16g/	.	16b\	.	.	.
8A\	.	16f#/	.	16a\	.	.	.
.	.	16e/JJ	.	16g\JJ	.	.	.
8B\	.	8.d#X/L	.	8.f#/L	.	.	.
8BB/J	.	.	.	.	.	.	.
.	.	16e/Jk	.	16e/Jk	.	.	.
!	!	!LO:TX:b:t=Finis	!	!LO:TX:b:t=Finis	!	!	!
8E;;\L	.	4e;/	.	4e;/	.	4r	.
8D\J	.	.	.	.	.	.	.
8C/L	6	4r	.	4r	.	8r	.
8BB/J	6|	.	.	.	.	8B\	hic
!	!	!LO:TX:a:t=P:problem= podwójna kreska taktowa	!	!LO:TX:a:t=P:problem= podwójna kreska taktowa	!	!	!
=48	=48	=48	=48	=48	=48	=48	=48
4AA/	n	2r	.	2r	.	8c\	So-
.	.	.	.	.	.	16B\LL	-la
.	.	.	.	.	.	16A\JJ	.
!LO:TX:a:t=P: D/E?:problem	!	!	!	!	!	!	!
8D\L	#	.	.	.	.	8.G#X\	me-
8E\J	6	.	.	.	.	.	.
.	.	.	.	.	.	16A\	-a
!LO:TX:a:t=P: D/E?:problem	!	!	!	!	!	!	!
4D\	.	8r	.	8r	.	4B\	spes
.	.	16ee\LL	.	16gg#X\LL	.	.	.
.	.	16ff#\JJ	.	16aa\JJ	.	.	.
8r	.	4gg#X\	.	4bb\	.	8r	.
8D\	.	.	.	.	.	8B\	et
!LO:LB:g=original	!	!	!	!	!	!	!
=49	=49	=49	=49	=49	=49	=49	=49
!	!	!	!	!	!	!LO:N:vis=4	!
8G\L	4	2r	.	2r	.	8c\	to-
8F#X\J	6	.	.	.	.	16A\LL	-ta
.	.	.	.	.	.	16G\JJ	.
8G\L	-	.	.	.	.	8.F#\	re-
8D\J	#	.	.	.	.	.	.
.	.	.	.	.	.	16G\	-qui-
4r	.	8r	.	8r	.	4A\	-es
.	.	16dd\LL	.	16ff#\LL	.	.	.
.	.	16ee\JJ	.	16gg\JJ	.	.	.
8r	.	4ff#\	.	4aa\	.	8r	.
8D\	.	.	.	.	.	8A\	in
=50	=50	=50	=50	=50	=50	=50	=50
8G\L	.	4r	.	4r	.	8B-X\	te
8Fn\	.	.	.	.	.	8A\	ſu-
8E-X\	.	8r	.	8r	.	8B-\	-ſpi-
8C\J	.	8ff#\	.	8aa\	.	8A\	-rat
4D\	.	8gg\L	.	8bb-X\L	.	4r	.
.	.	8ff#\	.	8aa\	.	.	.
4r	.	8gg\	.	8bb-\	.	8r	.
.	.	8ff#\J	.	8aa\J	.	8A\	in
=51	=51	=51	=51	=51	=51	=51	=51
4D\	.	2r	.	2r	.	8B-X\	te
.	.	.	.	.	.	8A\	ſu-
!	!	!	!	!	!	!LO:LB:g=original	!
4r	.	.	.	.	.	16G\LL	-ſpi-
.	.	.	.	.	.	16F#\JJ	.
.	.	.	.	.	.	16G\LL	-rat
.	.	.	.	.	.	16A\JJ	.
8D\L	#	8r	.	8r	.	[2D/	Cor
8C\J	4	8b-X/L	.	8ddd\	.	.	.
.	7	.	.	.	.	.	.
8BB-X/L	6	8a/	.	16ccc\LL	.	.	.
.	.	.	.	16aa\	.	.	.
8AA/J	.	8g/J	.	16bb-X\	.	.	.
.	.	.	.	16gg\JJ	.	.	.
!	!	!	!	!LO:LB:g=original	!	!	!
=52	=52	=52	=52	=52	=52	=52	=52
!	!	!LO:TX:t=P:problem=mixed beam	!	!	!	!	!
8GG/L	.	8f#X/L	.	8aa\L	.	2D/]	.
8C/	.	8dd\J	.	8bb-X\	.	.	.
8D/	.	16cc/LL	.	8aa\	.	.	.
.	.	16a/	.	.	.	.	.
8DD/J	.	16b-X/	.	8gg\J	.	.	.
.	.	16g/JJ	.	.	.	.	.
!	!	!	!LO:DY:b:t=pian:	!	!	!	!
4GG/	.	4a/	p	4ff#X\	.	8r	.
.	.	.	.	.	.	8D\	in
8r	.	8d/L	.	4r	.	8G\	te
8A\	4# 2	8c/J	.	.	.	8A\	ſu-
!LO:LB:g=original	!	!	!	!	!	!	!
=53	=53	=53	=53	=53	=53	=53	=53
4G\	6	16B-X/LL	.	2r	.	16B-X\LL	-ſpi-
.	.	16d/	.	.	.	16A\JJ	.
.	.	16c/	.	.	.	16G\	-rat
.	.	16B-/JJ	.	.	.	16A\	af-
8r	.	8A/L	.	.	.	8.D#X/	-flic-
8A\	.	8g#X/J	.	.	.	.	.
.	.	.	.	.	.	16D#/	-tum
8G\L	6	4a/	.	4r	.	4G\	Cor
8F#X\	.	.	.	.	.	.	.
8E\	.	4bn/	.	8bbn\L	.	4r	.
8D#X\J	6	.	.	8dd#X\J	.	.	.
!	!	!LO:LB:g=original	!	!	!	!	!
=54	=54	=54	=54	=54	=54	=54	=54
8E\L	6	4gg\	.	8ee\L	.	2r	.
8D#X\J	6	.	.	8ccc\J	.	.	.
8E\L	6	4bn/	.	8bbn\L	.	.	.
8D#X\J	6	.	.	8dd#X\J	.	.	.
8E\L	6	4g/	.	4ee\	.	4r	.
8D#X\J	6	.	.	.	.	.	.
8E\L	6	4r	.	4r	.	8r	.
8D#X\J	.	.	.	.	.	8Bn\	in
=55	=55	=55	=55	=55	=55	=55	=55
8E\L	6	4r	.	4r	.	8c\	te
8Dn\J	6	.	.	.	.	8B\	ſu-
8C#X/L	6|	8r	.	8r	.	8c\	-ſpi-
8BB/J	.	8ff#\	.	8bb\	.	8B\	-rat
4.AA#X/	.	8gg\L	.	8ccc\L	.	4r	.
.	.	8ff#\	.	8bb\	.	.	.
.	.	8gg\	.	8ccc\	.	8r	.
8BB/	.	8ff#\J	.	8bb\J	.	8B\	in
=56	=56	=56	=56	=56	=56	=56	=56
4F#\	#	2r	.	2r	.	8c\	te
!	!	!	!	!	!	!LO:LB:g=original	!
.	.	.	.	.	.	8B\	ſu-
4r	.	.	.	.	.	(16A#X\LL	-ſpi-
.	.	.	.	.	.	16G#X\JJ)	.
.	.	.	.	.	.	(16A#X\LL	-rat
.	.	.	.	.	.	16B\JJ)	.
8F#\L	#	8r	.	8r	.	[2F#\	Cor
8E\	.	8dd\L	.	8ff#\	.	.	.
8D\	6	8cc#X\	.	16ee\LL	.	.	.
!	!	!	!	!LO:TX:a:t=#	!	!	!
.	.	.	.	16cc#y\	.	.	.
8C#X\J	6|	8bn\J	.	16dd\	.	.	.
.	.	.	.	16b\JJ	.	.	.
=57	=57	=57	=57	=57	=57	=57	=57
!LO:TX:a:t=P:problem= ostatnie 5 taktów partii org. (str. 10 skanu) to takty 57-61 lub 58-62	!	!	!	!	!	!	!
!LO:TX:a:t=P:problem= brakujący takt	!	!LO:TX:t=P:problem=mixed beam	!	!	!	!	!
1ryy	.	8a#X/L	.	8cc#X\L	.	2F#\]	.
.	.	8ff#\J	.	8dd\	.	.	.
.	.	16ee\LL	.	8cc#\	.	.	.
.	.	16cc#X\	.	.	.	.	.
!	!	!	!	!LO:TX:a:t=P:problem=custos a	!	!	!
.	.	16dd\	.	8b\J	.	.	.
.	.	16b\JJ	.	.	.	.	.
!	!	!	!	!LO:LB:g=original	!	!	!
.	.	4cc#X\	.	4a#X/	.	8r	.
.	.	.	.	.	.	8F#\	in
!	!	!	!LO:DY:b:t=piano.	!	!	!	!
.	.	8f#/L	p	4r	.	8B\	te
.	.	8e/J	.	.	.	8c#X\	ſu-
!	!	!	!	!	!	!LO:TX:a:t=P:problem= brak kreski taktowej	!
=58	=58	=58	=58	=58	=58	=58-zz	=58
!LO:TX:t=P:problem=mixed beam	!	!	!	!	!	!	!
8BB\L	.	16d/LL	.	1r	.	16d\LL	-ſpi-
.	.	16f#/	.	.	.	16c#X\JJ	.
8E\	6 5	16e/	.	.	.	16B\	-rat
.	.	16d/JJ	.	.	.	16c#\	af-
8F#\	.	8.c#X/L	.	.	.	8.A#X\	-flic-
8FF#/J	4	.	.	.	.	.	.
.	3	16B/Jk	.	.	.	16B\	-tum
.	#	.	.	.	.	.	.
!LO:N:vis=4.	!	!	!	!	!	!	!
4BB/	.	4B/	.	.	.	8B\	Cir
.	.	.	.	.	.	8B\	in
4G\	.	4r	.	.	.	8B\	te
.	.	.	.	.	.	8B\	ſu-
=59	=59	=59	=59	=59	=59	=59	=59
4E#X\	7-	4g#X/	.	8r	.	8B\	-ſpi-
.	.	.	.	8dd\L	.	8B\	-rat
8r	.	8r	.	8dd\	.	8B\	ſu-
8E#\	7-	8g#/	.	8dd\J	.	16A#X\LL	-ſpi-
.	.	.	.	.	.	16F#\JJ	.
!LO:TX:t=P:problem=mixed beam	!	!	!	!	!	!LO:LB:g=original	!
8F#\L	.	8f#/L	.	8cc#X\L	.	8B\	-rat
8E#\	.	8gn/J	.	16dd\L	.	8c#X\	Af-
.	4	.	.	16ee\JJ	.	.	.
8F#\	3	8.f#/L	.	8.cc#\L	.	8.A#X\	-flic-
.	#	.	.	.	.	.	.
8FF#/J	.	.	.	.	.	.	.
.	.	16f#/Jk	.	16b\Jk	.	16B\	-tum
=60	=60	=60	=60	=60	=60	=60	=60
8B\L	n	4f#/	.	4b\	.	4B\	Cor
8An\	.	.	.	.	.	.	.
8G\	.	4r	.	4r	.	8r	.
8F#\J	.	.	.	.	.	8A\	in
8G\L	.	2r	.	2r	.	4Bn\	te
8F#\	.	.	.	.	.	.	.
8E\	.	.	.	.	.	4G\	ſsu-
8Dn\J	6	.	.	.	.	.	.
=61	=61	=61	=61	=61	=61	=61	=61
8E\L	6	0r	.	0r	.	4cn\	-ſpi-
8C\J	.	.	.	.	.	.	.
8BB/L	6	.	.	.	.	8G\	-rat
8C/J	6 5	.	.	.	.	8C/	Af-
2D\	4	.	.	.	.	4.D/	-flic-
.	3	.	.	.	.	8D/	-tum
.	#	.	.	.	.	.	.
=62	=62	=62	=62	=62	=62	=62	=62
!	!	!LO:TX:b:t=Da Capo.	!	!LO:TX:a:t=Da Capo	!	!	!
2.G\	.	.	.	.	.	2G\	Cor
!	!	!	!	!	!	!LO:TX:a:t=Da Capo	!
.	.	.	.	.	.	2r	.
4F#\	6|	.	.	.	.	.	.
==	==	==	==	==	==	==	==
*-	*-	*-	*-	*-	*-	*-	*-
!!!system-decoration: [(g1)][(g2)][(g3)]
!!!RDF**kern: >= above
!!!RDF**kern: <= below
!!!ENC: Anna Matuszewska
!!!END: 2020-11-11
!!!ENC: Marta Chmielewska
!!!END: 2020-06-05
